X:1
T:Away! Away!
T:William Batchelder Bradbury
T:Away! Away!
T:Public Domain
T:Public Domain
C:William Batchelder Bradbury
Z:Public Domain
%%score ( 1 2 ) ( 3 4 )
L:1/8
M:4/4
K:Bb
V:1 treble 
V:2 treble 
V:3 bass 
V:4 bass 
V:1
 [DF]2 | [B,D]2 [DF]2 [DB]2 [DB][Ec] | [Fd]2 [Fd][Ec] [DB]2 [EG]2 | [DF]2 D2 [DB]2 [B,D]2 | %4
w: 1.~A-|way! a- way! not a|mo- ment to lin- ger,|Haste we now with|
w: 2.~A-|way! a- way! where the|an- gels are bend- ing|Light- ly o’er the|
w: 3.~A-|way! a- way! for the|mo- ments are fly- ing,|Time for us will|
w: 4.~A-|way! a- way! not a|mo- ment to lin- ger,|Haste we now with|
 [B,D]2 [A,C]2 [A,C]2 [CF]2 | [B,D]2 [DF]2 [DB]2 [DB][Ec] | [Fd]2 [Fd][Ec] [DB]2 [EG]2 | %7
w: step free, Where those|who love in the vine-|yard to la- bor, Wait|
w: of prayer. Glad hymns|of praise to the Lord|of the Sab- bath, Sweet-|
w: be o’er; This ho-|ly day we will try|to im- prove it, Ere|
w: steps free, Where those|who love in the vine-|yard to la- bor, Wait|
 [DF]2 [DB]2 [Ec]2 [Fd]2 | [DB]6 ||"^Refrain" [DB][Ec] | [Fd]2 [Fd]2 [Fd]2 [Fd]2 | %11
w: for you and me.||||
w: ly e- cho there.|To|the Sun-|day school re- joic-|
w: its light is o’er.||||
w: for you and me.||||
 [Fd][Ec][Ec][DB] [Ec]2 [CA][DB] | [Ec]2 [Ec]2 [Ec]2 [Ec]2 | [Ec][DB][DB][CA] [DB]2 [DB][Ec] | %14
w: |||
w: ing we will go, ’Tis a place|where all are hap-|py here be- low. Where the way|
w: |||
w: |||
 [Fd]2 [Fd]2 [Fd]2 [Fd]2 | [Fd]2 [Ec]2 [DB]2 [EG]2 | [DF]2 [DB]2 [Ec]2 [Fd]2 | [DB]6 |] %18
w: ||||
w: of life we learn|to know, And seek|our home a- bove.||
w: ||||
w: ||||
V:2
 x2 | x8 | x8 | x2 D2 x4 | x8 | x8 | x8 | x8 | x6 || x2 | x8 | x8 | x8 | x8 | x8 | x8 | x8 | x6 |] %18
w: |||foot-|||||||||||||||
w: |||house|||||||||||||||
w: |||soon|||||||||||||||
w: |||foot-|||||||||||||||
V:3
 [B,,B,]2 | [B,,B,]2 [B,,B,]2 [B,,B,]2 B,B, | B,2 B,[F,A,] [G,B,]2 [E,B,]2 | %3
 [B,,B,]2 [B,,B,]2 [B,,B,]2 [B,,F,]2 | F,2 F,2 F,2 [F,A,]2 | [B,,B,]2 [B,,B,]2 [B,,B,]2 B,B, | %6
 B,2 [B,,F,][B,,F,] [B,,F,]2 G,B, | [F,B,]2 F,2 F,2 F,2 | [B,,F,]6 || B,B, | %10
 B,2 [F,B,]2 [D,B,]2 [B,,B,]2 | [F,B,][F,A,][F,A,][F,B,] [F,A,]2 [F,C][F,B,] | %12
 [F,A,]2 [F,A,]2 [F,A,]2 [F,A,]2 | [B,,F,][B,,F,][B,,F,][B,,F,] [B,,F,]2 B,B, | B,2 B,2 B,2 B,2 | %15
 B,2 [F,A,]2 [G,B,]2 [E,B,]2 | [F,B,]2 F,2 [F,A,]2 [F,A,]2 | [B,,B,]6 |] %18
V:4
 x2 | x6 B,B, | B,2 B, x5 | x8 | F,2 F,2 F,2 x2 | x6 B,B, | B,2 x2 E,2 x2 | x2 F,2 F,2 F,2 | x6 || %9
 B,B, | B,2 x6 | x8 | x8 | x6 B,B, | B,2 B,2 B,2 B,2 | B,2 x6 | x2 F,2 x4 | x6 |] %18

